X: 32
T: The Dove House
R: reel
M: C|
L: 1/8
Z: 2011 John Chambers <jc:trillian.mit.edu>
B: Charles & Samuel Thompson eds "Twenty Four Country Dances", London 1774, p.16 #2
K: A
% - - - - - - - - - - - - - - - - - - - - - - - - -
   E2 | AEcA ecaf | ecBA GBGE | AEcA ecaf | edcB A2 :|
|: A2 | BEGB dgbd | cAce aecA | BEGB ((3cde) ((3fga) | edcB A2 :|
% - - - - - - - - Dance description - - - - - - - -
%%begintext align
%% Cast off 2 Cu. .|. lead up and cast
%% off :|. hands 4 at bottom .|: Right
%% & Left at top :|:
%%endtext

%%sep 1 1 500
